public/images/waves.svg

<svg width="1440" height="346" viewBox="0 0 1440 346" fill="none" xmlns="http://www.w3.org/2000/svg">
    <path fill-rule="evenodd" clip-rule="evenodd"
        d="M1440 86.6163L1380 115.616C1320 143.616 1200 201.616 1080 187.616C960 172.616 840 86.6163 720 79.6163C600 71.6163 480 143.616 360 172.616C240 201.616 120 187.616 60 179.616L0 172.616V345.616H60C120 345.616 240 345.616 360 345.616C480 345.616 600 345.616 720 345.616C840 345.616 960 345.616 1080 345.616C1200 345.616 1320 345.616 1380 345.616H1440V86.6163Z"
        fill="#AD2D60" />
    <path fill-rule="evenodd" clip-rule="evenodd"
        d="M0 0L60 15C120 29 240 58 360 51C480 44 600 0 720 44C840 87 960 216 1080 252C1200 288 1320 231 1380 202L1440 173V346H1380C1320 346 1200 346 1080 346C960 346 840 346 720 346C600 346 480 346 360 346C240 346 120 346 60 346H0V0Z"
        fill="#FF4D84" />
</svg>

<svg width="1440" height="346" fill="none" xmlns="http://www.w3.org/2000/svg">
    <path fill-rule="evenodd" clip-rule="evenodd"
        d="M1440 86.616l-60 29c-60 28-180 86-300 72-120-15-240-101-360-108-120-8-240 64-360 93s-240 15-300 7l-60-7v173h1440v-259z"
        fill="#AD2D60" />
    <path fill-rule="evenodd" clip-rule="evenodd"
        d="M0 0l60 15c60 14 180 43 300 36s240-51 360-7c120 43 240 172 360 208s240-21 300-50l60-29v173H0V0z"
        fill="#FF4D84" />
</svg>
